dist/svg/identity-key.svg

<svg width="16" height="16" viewBox="0 0 16 16" fill="rgb(34, 34, 34)" xmlns="http://www.w3.org/2000/svg"><title>identity-key</title><path d="M13.468 3.98V4.01H13.458C14.939 4.47 16 5.82 16 7.42C15.98 9.4 14.369 11 12.378 11H11.738C11.428 11.57 10.838 12 9.99698 12H8.40598L5.40398 15H1.99198V12.59L2.99298 11.59V11H2.66298C1.20198 11 0.0109766 9.82 0.000976562 8.36C0.000976562 7.14 0.841977 6.12 1.96198 5.81H1.98198C2.21198 4.15 3.62298 2.88 5.33398 2.88H5.35398C5.63398 2.88 5.88398 2.92 6.14398 2.98C6.85398 1.79 8.12498 1 9.58598 1H9.62598C11.477 1 13.028 2.26 13.468 3.98ZM5.00298 14L8.00498 11H10.006C11.007 11 11.007 10 11.007 10V7C11.007 6.45 10.557 6 10.006 6H7.00398C6.00298 6 6.00298 7 6.00298 7V9L5.00198 10V11H4.00098V12L2.99998 13V14H5.00098H5.00298ZM10.006 8C10.006 8.552 9.55798 9 9.00498 9C8.45198 9 8.00398 8.552 8.00398 8C8.00398 7.448 8.45198 7 9.00498 7C9.55798 7 10.006 7.448 10.006 8Z" fill="rgb(34, 34, 34)" fill-opacity="1.00"/></svg>

<!-- Generated by Trend Micro Style Portal -->
<svg version="1.1" xmlns="http://www.w3.org/2000/svg" width="16" height="16" viewBox="0 0 16 16">
  <title>identity-key</title>
  <path fill="rgb(34,34,34)" d="M13.468 3.98v0.030h-0.010c1.481 0.46 2.542 1.81 2.542 3.41-0.020 1.98-1.631 3.58-3.622 3.58h-0.64c-0.31 0.57-0.9 1-1.741 1h-1.591l-3.002 3h-3.412v-2.41l1.001-1v-0.59h-0.33c-1.461 0-2.652-1.18-2.662-2.64 0-1.22 0.841-2.24 1.961-2.55h0.020c0.23-1.66 1.641-2.93 3.352-2.93h0.020c0.28 0 0.53 0.040 0.79 0.1 0.71-1.19 1.981-1.98 3.442-1.98h0.040c1.851 0 3.402 1.26 3.842 2.98zM5.003 14l3.002-3h2.001c1.001 0 1.001-1 1.001-1v-3c0-0.55-0.45-1-1.001-1h-3.002c-1.001 0-1.001 1-1.001 1v2l-1.001 1v1h-1.001v1l-1.001 1v1h2.001zM10.006 8c0 0.552-0.448 1-1.001 1s-1.001-0.448-1.001-1c0-0.552 0.448-1 1.001-1s1.001 0.448 1.001 1z"></path>
</svg>
